ix/book-square_twotone.svg

<svg viewBox="0 0 24 24" fill="none" xmlns="http://www.w3.org/2000/svg" height="1em" width="1em">
  <path d="M9 22H15C20 22 22 20 22 15V9C22 4 20 2 15 2H9C4 2 2 4 2 9V15C2 20 4 22 9 22Z" stroke="#292D32" stroke-width="1.5" stroke-linecap="round" stroke-linejoin="round"/>
  <g opacity="0.4">
    <path d="M18.3801 15.2702V7.58023C18.3801 6.81023 17.7601 6.25024 17.0001 6.31024H16.9601C15.6201 6.42024 13.5901 7.11025 12.4501 7.82025L12.3401 7.89026C12.1601 8.00026 11.8501 8.00026 11.6601 7.89026L11.5001 7.79025C10.3701 7.08025 8.34012 6.41023 7.00012 6.30023C6.24012 6.24023 5.62012 6.81025 5.62012 7.57025V15.2702C5.62012 15.8802 6.1201 16.4602 6.7301 16.5302L6.9101 16.5602C8.2901 16.7402 10.4301 17.4502 11.6501 18.1202L11.6801 18.1302C11.8501 18.2302 12.1301 18.2302 12.2901 18.1302C13.5101 17.4502 15.6601 16.7502 17.0501 16.5602L17.2601 16.5302C17.8801 16.4602 18.3801 15.8902 18.3801 15.2702Z" stroke="#292D32" stroke-width="1.5" stroke-linecap="round" stroke-linejoin="round"/>
    <path d="M12 8.1001V17.6601" stroke="#292D32" stroke-width="1.5" stroke-linecap="round" stroke-linejoin="round"/>
  </g>
</svg>

<svg viewBox="0 0 24 24" fill="none" xmlns="http://www.w3.org/2000/svg" height="1em" width="1em">
  <path d="M9 22h6c5 0 7-2 7-7V9c0-5-2-7-7-7H9C4 2 2 4 2 9v6c0 5 2 7 7 7Z" stroke="#292D32" stroke-width="1.5" stroke-linecap="round" stroke-linejoin="round"/>
  <path d="M18.38 15.27V7.58c0-.77-.62-1.33-1.38-1.27h-.04c-1.34.11-3.37.8-4.51 1.51l-.11.07c-.18.11-.49.11-.68 0l-.16-.1C10.37 7.08 8.34 6.41 7 6.3c-.76-.06-1.38.51-1.38 1.27v7.7c0 .61.5 1.19 1.11 1.26l.18.03c1.38.18 3.52.89 4.74 1.56l.03.01c.17.1.45.1.61 0 1.22-.68 3.37-1.38 4.76-1.57l.21-.03c.62-.07 1.12-.64 1.12-1.26ZM12 8.1v9.56" opacity=".4" stroke="#292D32" stroke-width="1.5" stroke-linecap="round" stroke-linejoin="round"/>
</svg>
